remix/Others/door-lock-box-fill.svg

<svg viewBox="0 0 24 24" fill="currentColor" xmlns="http://www.w3.org/2000/svg"><path d="M4 3H20C20.5523 3 21 3.44772 21 4V20C21 20.5523 20.5523 21 20 21H4C3.44772 21 3 20.5523 3 20V4C3 3.44772 3.44772 3 4 3ZM11 12.792V16H13V12.792C13.883 12.4062 14.5 11.5252 14.5 10.5C14.5 9.11929 13.3807 8 12 8C10.6193 8 9.5 9.11929 9.5 10.5C9.5 11.5252 10.117 12.4062 11 12.792Z"/></svg>

<svg viewBox="0 0 24 24" xmlns="http://www.w3.org/2000/svg"><path fill="none" d="M0 0h24v24H0Z"/><path d="M4 3h16v0c.55 0 1 .44 1 1v16 0c0 .55-.45 1-1 1H4v0c-.56 0-1-.45-1-1V4v0c0-.56.44-1 1-1Zm7 9.792V16h2v-3.208l-.001 0c1.26-.56 1.84-2.03 1.29-3.3 -.56-1.27-2.03-1.85-3.3-1.3s-1.85 2.02-1.3 3.29c.25.57.71 1.03 1.29 1.29Z"/></svg>
